Numix/16x16/categories/applications-chat.svg

<?xml version="1.0" encoding="UTF-8" standalone="no"?>
<svg
   xmlns:dc="http://purl.org/dc/elements/1.1/"
   xmlns:cc="http://creativecommons.org/ns#"
   xmlns:rdf="http://www.w3.org/1999/02/22-rdf-syntax-ns#"
   xmlns:svg="http://www.w3.org/2000/svg"
   xmlns="http://www.w3.org/2000/svg"
   xmlns:sodipodi="http://sodipodi.sourceforge.net/DTD/sodipodi-0.dtd"
   xmlns:inkscape="http://www.inkscape.org/namespaces/inkscape"
   width="16"
   height="16"
   viewBox="0 0 16 16"
   id="svg2"
   version="1.1"
   inkscape:version="0.91 r"
   sodipodi:docname="applications-chat.svg">
  <metadata
     id="metadata14">
    <rdf:RDF>
      <cc:Work
         rdf:about="">
        <dc:format>image/svg+xml</dc:format>
        <dc:type
           rdf:resource="http://purl.org/dc/dcmitype/StillImage" />
      </cc:Work>
    </rdf:RDF>
  </metadata>
  <defs
     id="defs12" />
  <sodipodi:namedview
     pagecolor="#ffffff"
     bordercolor="#666666"
     borderopacity="1"
     objecttolerance="10"
     gridtolerance="10"
     guidetolerance="10"
     inkscape:pageopacity="0"
     inkscape:pageshadow="2"
     inkscape:window-width="1920"
     inkscape:window-height="1056"
     id="namedview10"
     showgrid="false"
     inkscape:zoom="14.75"
     inkscape:cx="8"
     inkscape:cy="8"
     inkscape:window-x="0"
     inkscape:window-y="24"
     inkscape:window-maximized="1"
     inkscape:current-layer="svg2" />
  <g
     style="fill:#8ccd7c"
     id="g4"
     transform="translate(0.0839845,0.08203113)">
    <path
       d="m 4.640625,5.015625 c -1.605469,0 -2.910156,1.3125 -2.910156,2.925781 0,0.101563 0.00391,0.199219 0.011719,0.296875 0.027343,0.628907 -0.011719,1.53125 0.71875,3.726563 0.617187,1.867187 1.089843,1.828125 1.089843,1.828125 l 0.726563,-0.367188 c 0,0 -0.363282,-0.730469 -0.363282,-1.460937 0,-0.351563 0.082032,-0.785156 0.167969,-1.144532 0.179688,0.03516 0.371094,0.04688 0.558594,0.04688 1.605469,0 2.90625,-1.308594 2.90625,-2.925782 0,-1.613281 -1.300781,-2.925781 -2.90625,-2.925781 z"
       id="path6"
       inkscape:connector-curvature="0" />
    <path
       d="m 11.191406,10.816406 c 1.609375,0 2.910156,-1.308594 2.910156,-2.925781 0,-0.097656 0,-0.199219 -0.01172,-0.296875 C 14.066406,6.96875 14.101562,6.0625 13.375,3.867188 12.753906,2.003906 12.285156,2.042969 12.285156,2.042969 L 11.558594,2.40625 c 0,0 0.363281,0.730469 0.363281,1.460938 0,0.351562 -0.08594,0.785156 -0.171875,1.144531 -0.179688,-0.035157 -0.367188,-0.046875 -0.558594,-0.046875 -1.601562,0 -2.90625,1.3125 -2.90625,2.925781 0,1.617187 1.304688,2.925781 2.90625,2.925781 z"
       id="path8"
       inkscape:connector-curvature="0" />
  </g>
</svg>

<svg width="16" xmlns="http://www.w3.org/2000/svg" height="16" viewBox="0 0 16 16" xmlns:xlink="http://www.w3.org/1999/xlink">
<g style="fill:#8ccd7c">
<path d="M 4.640625 5.015625 C 3.035156 5.015625 1.730469 6.328125 1.730469 7.941406 C 1.730469 8.042969 1.734375 8.140625 1.742188 8.238281 C 1.769531 8.867188 1.730469 9.769531 2.460938 11.964844 C 3.078125 13.832031 3.550781 13.792969 3.550781 13.792969 L 4.277344 13.425781 C 4.277344 13.425781 3.914062 12.695312 3.914062 11.964844 C 3.914062 11.613281 3.996094 11.179688 4.082031 10.820312 C 4.261719 10.855469 4.453125 10.867188 4.640625 10.867188 C 6.246094 10.867188 7.546875 9.558594 7.546875 7.941406 C 7.546875 6.328125 6.246094 5.015625 4.640625 5.015625 Z "/>
<path d="M 11.191406 10.816406 C 12.800781 10.816406 14.101562 9.507812 14.101562 7.890625 C 14.101562 7.792969 14.101562 7.691406 14.089844 7.59375 C 14.066406 6.96875 14.101562 6.0625 13.375 3.867188 C 12.753906 2.003906 12.285156 2.042969 12.285156 2.042969 L 11.558594 2.40625 C 11.558594 2.40625 11.921875 3.136719 11.921875 3.867188 C 11.921875 4.21875 11.835938 4.652344 11.75 5.011719 C 11.570312 4.976562 11.382812 4.964844 11.191406 4.964844 C 9.589844 4.964844 8.285156 6.277344 8.285156 7.890625 C 8.285156 9.507812 9.589844 10.816406 11.191406 10.816406 Z "/>
</g>
</svg>
